!!!OTL: MEI SCHATZERL IS GWANDERT
!!!ARE: Europa, Mitteleuropa, Oesterreich, Tirol
!!!SCT: B0470
!!!YEM: Copyright 1995, estate of Helmut Schaffrath.
**kern
*ICvox
*Ivox
*M3/4
*k[f#]
*G:
{4b
=1
8cc
8b
4a
4ee
=2
4.dd
8cc}
{4b
=3
4cc
8e
8g
8f#
8a
=4
4.g
8a}
{4b
=5
8cc
8b
4a
4ee
=6
4.dd
8cc}
{4b
=7
4cc
8e
8g
8f#
8a
=8
2g}
==
!!!AGN: Liebes - Lied, Leid, Klage
!!!ONB: ESAC (Essen Associative Code) Database: BOEHME
!!!AMT: simple triple
!!!AIN: vox
!!!EED: Helmut Schaffrath
!!!EEV: 1.0
*-
